X:152
T:Hand Me Down the Tackle
T:Pure Drop, The
T:Reidy Johnson's
T:Tom Steele's
R:reel
D:Frankie Gavin: Frankie Goes to Town
D:Noel Hill & Tony McMahon: \'I gCnoc na Gra\'i
Z:id:hn-reel-152
M:C|
K:D
dD~D2 FDFA | dfaf gfec | dD~D2 FDFA | BGEF GABc |
dD~D2 FDFA | dfaf gfeg | fdec dBAF | GFEF GABc :|
d2fd Adfd | d2fd BABc | d2fd Adfd | BGEF GABc |
d2fd Adfd | d2fd cdeg | fdec dAFA | GFEF GABc |
d2fd Adfd | d2fd BABc | dcde fdAF | GEFD ~E3z |
~a3b afdf | gfef gbag | fdec dBAF | GFEF GABc ||
P:variations
|: dD~D2 FDFA | dfaf gfec | dD~D2 FAAF | GFEF GABc |
dD~D2 FDFA | dfaf gfeg | fdec dBAF | GBEF GABc :|
d2fd edfd | Adfd edBc | d2fd Adfd | (3Bcd AF GABc |
d2fd Adfd | cdef gaag | fdec dBAF | GFEF GABc |
d2fd Adfd | d2fd edBc | dcde fdAF | GEFD ~E3z |
~a3b afdf | gfef g2ag | fgec dBAF | GBEF GABc ||

